X:1
T:Mr Oswald (of Auchencruive)
T:Mr Oswald (of Auchencruive)
T:Robert Mackintosh
C:Robert Mackintosh
L:1/8
Q:1/8=128
M:4/4
K:G
V:1 treble 
V:1
 D |: G>A B>d B>A B<g | d<B A>G F<A A>B | G/A/B B>B B>A B<g | d<B A>G D/G/G GD | G>A B>d B>A B<g | %6
 d<B A>G F<A A>B | G/A/B B>B B>A B<g | d<B A>G D/G/G Gf | g>a b>g f<d a>f | g/f/g/a/ b>g f<a a>f | %11
 g>a b>g f<d a>f | g>e d>c B<G G>f | g>a b>g f<d a>f | g/f/g/a/ b>g f<a a>f | g<b a<b g<a f<g | %16
 e<a f>d g2 g |: x8 | %18

